public/images/klutchkick.svg

<?xml version="1.0" encoding="UTF-8"?><svg id="Calque_1" xmlns="http://www.w3.org/2000/svg" viewBox="0 0 1641.55 250"><g><circle cx="125" cy="125" r="125"/><g><path d="m64.25,171.88v-93.75h21.12v76.5l-6-4.25,58-72.25h22.62l-76.62,93.75h-19.12Z" style="fill:#fff;"/><polygon points="192 171.88 158.23 117.76 190.62 78.12 168 78.12 91.28 171.88 114 171.88 144.71 134.3 167.75 171.88 192 171.88" style="fill:#fff; opacity:.8;"/></g></g><g><polygon points="408.21 171.95 374.33 117.02 406.94 76.99 381.62 76.99 331.86 139.75 331.86 76.99 308.06 76.99 308.06 171.95 329.58 171.95 359.24 135.54 381.11 171.95 408.21 171.95"/><path d="m415.3,74.46h23.42v97.49h-23.42v-97.49Z"/><path d="m539.13,171.95l-4.69-24.56v-47.61h-23.42v34.82c0,4.14-.74,7.72-2.22,10.76-1.48,3.04-3.57,5.36-6.27,6.96-2.7,1.6-5.99,2.41-9.88,2.41-5.23,0-9.24-1.56-12.03-4.68-2.79-3.12-4.18-7.6-4.18-13.42v-36.85h-23.55v40.26c0,6.92,1.24,12.92,3.74,17.98,2.49,5.06,6.12,8.97,10.89,11.71,4.77,2.74,10.49,4.12,17.16,4.12,5.74,0,10.99-1.35,15.76-4.05,4.77-2.7,8.74-6.69,11.9-11.96.25-.42.49-.87.73-1.31l2.5,15.42h23.55Z"/><path d="m543.68,117.25v-10.26l14.94-5.44,10-21.02h13.55v19.25h31.15v17.47h-31.15v23.8c0,5.4,1.1,9.18,3.29,11.33,2.19,2.15,6.12,3.23,11.78,3.23,3.54,0,6.71-.32,9.5-.95s5.4-1.5,7.85-2.6v17.85c-2.53,1.01-5.85,1.94-9.94,2.79-4.1.84-8.34,1.27-12.72,1.27-7.68,0-13.99-1.22-18.93-3.67-4.94-2.45-8.57-5.89-10.89-10.32-2.32-4.43-3.48-9.64-3.48-15.64v-27.1h-14.94Z"/><path d="m707.4,142.07c-.68,6.25-3.02,11.77-7.03,16.59-4.01,4.81-9.16,8.57-15.45,11.27-6.29,2.7-13.36,4.05-21.21,4.05-8.69,0-16.38-1.6-23.04-4.81-6.67-3.21-11.86-7.68-15.57-13.42-3.72-5.74-5.57-12.36-5.57-19.88s1.86-14.12,5.57-19.82c3.71-5.7,8.9-10.17,15.57-13.42,6.67-3.25,14.35-4.87,23.04-4.87,7.85,0,14.92,1.35,21.21,4.05,6.29,2.7,11.44,6.44,15.45,11.21,4.01,4.77,6.35,10.36,7.03,16.78h-23.42c-.93-4.64-3.23-8.21-6.9-10.7-3.67-2.49-8.12-3.74-13.36-3.74-4.14,0-7.75.8-10.83,2.41-3.08,1.6-5.47,3.95-7.15,7.03-1.69,3.08-2.53,6.77-2.53,11.08s.84,7.98,2.53,11.02c1.69,3.04,4.07,5.36,7.15,6.96,3.08,1.6,6.69,2.41,10.83,2.41,5.32,0,9.79-1.29,13.42-3.86,3.63-2.57,5.91-6.01,6.84-10.32h23.42Z"/><path d="m801.34,131.69v40.26h-23.55v-36.72c0-5.99-1.45-10.53-4.37-13.61-2.91-3.08-7.15-4.62-12.72-4.62-3.88,0-7.24.82-10.07,2.47-2.82,1.64-5.02,3.97-6.58,6.96-1.56,3-2.34,6.56-2.34,10.7v34.82h-23.43v-97.49h23.43v37.62c3-4.38,6.66-7.79,10.95-10.21,4.85-2.74,10.23-4.12,16.14-4.12,6.84,0,12.68,1.4,17.54,4.18,4.85,2.79,8.57,6.69,11.14,11.71,2.58,5.03,3.86,11.04,3.86,18.05Z"/><polygon points="900.99 171.95 873.97 128.82 899.09 99.78 873.89 99.78 838.95 142.74 838.95 74.46 815.52 74.46 815.52 171.95 836.67 171.95 859 146.13 874.27 171.95 900.99 171.95"/><path d="m919.6,92.18c-4.14,0-7.51-1.08-10.13-3.23-2.62-2.15-3.92-5-3.92-8.55s1.31-6.5,3.92-8.61c2.62-2.11,5.99-3.17,10.13-3.17s7.6,1.06,10.13,3.17c2.53,2.11,3.8,4.98,3.8,8.61s-1.27,6.39-3.8,8.55c-2.53,2.15-5.91,3.23-10.13,3.23Zm-11.78,6.58l11.65,2.41,11.77-2.41v73.18h-23.42v-73.18Z"/><path d="m1030.77,142.07c-.68,6.25-3.02,11.77-7.03,16.59-4.01,4.81-9.16,8.57-15.45,11.27-6.29,2.7-13.36,4.05-21.21,4.05-8.69,0-16.38-1.6-23.04-4.81-6.67-3.21-11.86-7.68-15.57-13.42-3.72-5.74-5.57-12.36-5.57-19.88s1.86-14.12,5.57-19.82c3.71-5.7,8.9-10.17,15.57-13.42,6.67-3.25,14.35-4.87,23.04-4.87,7.85,0,14.92,1.35,21.21,4.05,6.29,2.7,11.44,6.44,15.45,11.21,4.01,4.77,6.35,10.36,7.03,16.78h-23.42c-.93-4.64-3.23-8.21-6.9-10.7-3.67-2.49-8.12-3.74-13.36-3.74-4.14,0-7.75.8-10.83,2.41-3.08,1.6-5.47,3.95-7.15,7.03-1.69,3.08-2.53,6.77-2.53,11.08s.84,7.98,2.53,11.02c1.69,3.04,4.07,5.36,7.15,6.96,3.08,1.6,6.69,2.41,10.83,2.41,5.32,0,9.79-1.29,13.42-3.86,3.63-2.57,5.91-6.01,6.84-10.32h23.42Z"/><polygon points="1127.12 171.95 1100.11 128.82 1125.22 99.78 1100.03 99.78 1065.08 142.74 1065.08 74.46 1041.66 74.46 1041.66 171.95 1062.8 171.95 1085.13 146.13 1100.4 171.95 1127.12 171.95"/><path d="m1302.99,131.69v40.26h-23.55v-36.72c0-5.99-1.31-10.53-3.93-13.61-2.62-3.08-6.46-4.62-11.52-4.62-3.54,0-6.61.82-9.18,2.47-2.57,1.64-4.56,3.97-5.95,6.96-1.39,3-2.09,6.56-2.09,10.7v34.82h-23.55v-36.72c0-5.99-1.31-10.53-3.93-13.61-2.61-3.08-6.45-4.62-11.52-4.62-3.54,0-6.6.82-9.18,2.47-2.57,1.64-4.55,3.97-5.95,6.96-1.39,3-2.09,6.56-2.09,10.7v34.82h-23.55v-47.61l-4.55-24.56h23.42l2.54,15.29c.22-.42.45-.84.69-1.24,3.08-5.23,6.92-9.22,11.52-11.96,4.6-2.74,9.69-4.12,15.26-4.12,6.58,0,12.17,1.4,16.77,4.18,4.6,2.79,8.11,6.69,10.51,11.71.35.73.67,1.49.97,2.26.36-.71.73-1.4,1.12-2.07,3.04-5.23,6.88-9.22,11.52-11.96,4.64-2.74,9.71-4.12,15.2-4.12,6.58,0,12.19,1.4,16.84,4.18,4.64,2.79,8.16,6.69,10.57,11.71,2.41,5.03,3.61,11.04,3.61,18.05Z"/><path d="m1364.9,156.5c-5.91,0-10.91-.88-15-2.66-4.1-1.77-7.22-4.34-9.37-7.72-.65-1.03-1.21-2.13-1.66-3.29h58.7c0-9.12-1.65-17.05-4.94-23.81-3.29-6.75-7.98-11.98-14.05-15.7-6.08-3.71-13.34-5.57-21.78-5.57s-15.68,1.61-22.22,4.81c-6.55,3.21-11.67,7.64-15.39,13.3-3.71,5.65-5.57,12.24-5.57,19.75s1.94,14.39,5.83,20.13c3.88,5.74,9.22,10.22,16.01,13.42,6.8,3.21,14.5,4.81,23.11,4.81,7.26,0,14.03-.93,20.32-2.78,6.29-1.86,11.88-4.47,16.78-7.85v-15.32c-4.31,2.7-9.16,4.79-14.56,6.27-5.4,1.47-10.81,2.21-16.21,2.21Zm-25.13-32.66c1.64-2.87,3.94-5.11,6.9-6.72,2.95-1.6,6.46-2.4,10.51-2.4,3.71,0,6.92.74,9.62,2.21,2.7,1.48,4.87,3.59,6.52,6.34.85,1.42,1.52,3,1.99,4.74h-37.26c.4-1.49.98-2.87,1.72-4.17Z"/><path d="m1502.53,74.46h-24.44l-4.7,40.96c-3.55-5.5-7.97-9.81-13.27-12.92-5.41-3.16-11.48-4.75-18.24-4.75-7.09,0-13.31,1.61-18.67,4.81-5.36,3.21-9.56,7.66-12.6,13.36-3.04,5.7-4.56,12.35-4.56,19.94s1.52,14.25,4.56,19.95c3.04,5.69,7.24,10.15,12.6,13.35,5.36,3.21,11.58,4.81,18.67,4.81s12.83-1.58,18.24-4.74c5.36-3.15,9.8-7.53,13.34-13.17l1.85,15.89h24.31l-4.31-37.86,7.22-59.63Zm-43.24,78.81c-3.33,1.73-6.86,2.6-10.57,2.6s-6.99-.87-9.81-2.6c-2.83-1.73-5.05-4.09-6.65-7.09-1.6-2.99-2.41-6.43-2.41-10.32s.81-7.32,2.41-10.32c1.6-2.99,3.82-5.35,6.65-7.09,2.82-1.73,6.09-2.59,9.81-2.59s7.24.86,10.57,2.59c3.34,1.74,6.27,4.1,8.8,7.09,2.53,3,4.43,6.44,5.7,10.32-1.27,3.89-3.17,7.33-5.7,10.32-2.53,3-5.46,5.36-8.8,7.09Z"/><path d="m1524.69,92.18c-4.14,0-7.51-1.08-10.13-3.23-2.62-2.15-3.93-5-3.93-8.55s1.31-6.5,3.93-8.61c2.62-2.11,5.99-3.17,10.13-3.17s7.6,1.06,10.13,3.17c2.53,2.11,3.8,4.98,3.8,8.61s-1.27,6.39-3.8,8.55c-2.53,2.15-5.91,3.23-10.13,3.23Zm-11.78,6.58l11.65,2.41,11.78-2.41v73.18h-23.42v-73.18Z"/><path d="m1641.55,99.78h-24.43l-1.83,15.18c-3.5-5.28-7.84-9.44-12.99-12.46-5.4-3.16-11.48-4.75-18.23-4.75-7.09,0-13.32,1.61-18.68,4.81-5.36,3.21-9.56,7.66-12.59,13.36-3.04,5.7-4.56,12.35-4.56,19.94s1.52,14.25,4.56,19.95c3.03,5.69,7.23,10.15,12.59,13.35,5.36,3.21,11.59,4.81,18.68,4.81s12.83-1.58,18.23-4.74c5.17-3.04,9.5-7.23,12.97-12.59l1.85,15.31h24.43l-4.43-36.09,4.43-36.08Zm-40.07,53.49c-3.34,1.73-6.86,2.6-10.57,2.6s-6.99-.87-9.82-2.6c-2.82-1.73-5.04-4.09-6.64-7.09-1.61-2.99-2.41-6.43-2.41-10.32s.8-7.32,2.41-10.32c1.6-2.99,3.82-5.35,6.64-7.09,2.83-1.73,6.1-2.59,9.82-2.59s7.23.86,10.57,2.59c3.33,1.74,6.27,4.1,8.8,7.09,2.53,3,4.43,6.44,5.7,10.32-1.27,3.89-3.17,7.33-5.7,10.32-2.53,3-5.47,5.36-8.8,7.09Z"/></g></svg>

<svg xmlns="http://www.w3.org/2000/svg" viewBox="0 0 1641.55 250">
  <path
    d=" M 408.21 171.95 L 374.33 117.02 L 406.94 76.99 L 381.62 76.99 L 331.86 139.75 L 331.86 76.99 L 308.06 76.99 L 308.06 171.95 L 329.58 171.95 L 359.24 135.54 L 381.11 171.95 L 408.21 171.95 L 408.21 171.95 L 408.21 171.95 L 408.21 171.95 L 408.21 171.95 L 408.21 171.95 L 408.21 171.95 L 408.21 171.95 L 408.21 171.95 L 408.21 171.95 L 408.21 171.95 L 408.21 171.95 L 408.21 171.95 L 408.21 171.95 L 408.21 171.95 Z  M 415.3 74.46 L 438.72 74.46 L 438.72 171.95 L 415.3 171.95 L 415.3 74.46 L 415.3 74.46 L 415.3 74.46 L 415.3 74.46 L 415.3 74.46 L 415.3 74.46 L 415.3 74.46 L 415.3 74.46 L 415.3 74.46 L 415.3 74.46 L 415.3 74.46 L 415.3 74.46 L 415.3 74.46 L 415.3 74.46 L 415.3 74.46 Z  M 539.13 171.95 L 534.44 147.39 L 534.44 99.78 L 511.02 99.78 L 511.02 134.6 C 511.02 138.74 510.28 142.32 508.8 145.36 C 507.32 148.4 505.23 150.72 502.53 152.32 C 499.83 153.92 496.54 154.73 492.65 154.73 C 487.42 154.73 483.41 153.17 480.62 150.05 C 477.83 146.93 476.44 142.45 476.44 136.63 L 476.44 99.78 L 452.89 99.78 L 452.89 140.04 C 452.89 146.96 454.13 152.96 456.63 158.02 C 459.12 163.08 462.75 166.99 467.52 169.73 C 472.29 172.47 478.01 173.85 484.68 173.85 C 490.42 173.85 495.67 172.5 500.44 169.8 C 505.21 167.1 509.18 163.11 512.34 157.84 C 512.59 157.42 512.83 156.97 513.07 156.53 L 515.57 171.95 L 539.12 171.95 L 539.13 171.95 L 539.13 171.95 L 539.13 171.95 L 539.13 171.95 L 539.13 171.95 L 539.13 171.95 L 539.13 171.95 L 539.13 171.95 L 539.13 171.95 L 539.13 171.95 L 539.13 171.95 L 539.13 171.95 L 539.13 171.95 Z  M 543.68 117.25 L 543.68 106.99 L 558.62 101.55 L 568.62 80.53 L 582.17 80.53 L 582.17 99.78 L 613.32 99.78 L 613.32 117.25 L 582.17 117.25 L 582.17 141.05 C 582.17 146.45 583.27 150.23 585.46 152.38 C 587.65 154.53 591.58 155.61 597.24 155.61 C 600.78 155.61 603.95 155.29 606.74 154.66 C 609.53 154.03 612.14 153.16 614.59 152.06 L 614.59 169.91 C 612.06 170.92 608.74 171.85 604.65 172.7 C 600.55 173.54 596.31 173.97 591.93 173.97 C 584.25 173.97 577.94 172.75 573 170.3 C 568.06 167.85 564.43 164.41 562.11 159.98 C 559.79 155.55 558.63 150.34 558.63 144.34 L 558.63 117.24 L 543.69 117.24 L 543.68 117.25 L 543.68 117.25 L 543.68 117.25 L 543.68 117.25 L 543.68 117.25 L 543.68 117.25 L 543.68 117.25 L 543.68 117.25 L 543.68 117.25 L 543.68 117.25 L 543.68 117.25 L 543.68 117.25 Z  M 707.4 142.07 C 706.72 148.32 704.38 153.84 700.37 158.66 C 696.36 163.47 691.21 167.23 684.92 169.93 C 678.63 172.63 671.56 173.98 663.71 173.98 C 655.02 173.98 647.33 172.38 640.67 169.17 C 634 165.96 628.81 161.49 625.1 155.75 C 621.38 150.01 619.53 143.39 619.53 135.87 C 619.53 128.35 621.39 121.75 625.1 116.05 C 628.81 110.35 634 105.88 640.67 102.63 C 647.34 99.38 655.02 97.76 663.71 97.76 C 671.56 97.76 678.63 99.11 684.92 101.81 C 691.21 104.51 696.36 108.25 700.37 113.02 C 704.38 117.79 706.72 123.38 707.4 129.8 L 683.98 129.8 C 683.05 125.16 680.75 121.59 677.08 119.1 C 673.41 116.61 668.96 115.36 663.72 115.36 C 659.58 115.36 655.97 116.16 652.89 117.77 C 649.81 119.37 647.42 121.72 645.74 124.8 C 644.05 127.88 643.21 131.57 643.21 135.88 C 643.21 140.19 644.05 143.86 645.74 146.9 C 647.43 149.94 649.81 152.26 652.89 153.86 C 655.97 155.46 659.58 156.27 663.72 156.27 C 669.04 156.27 673.51 154.98 677.14 152.41 C 680.77 149.84 683.05 146.4 683.98 142.09 L 707.4 142.09 L 707.4 142.07 L 707.4 142.07 L 707.4 142.07 L 707.4 142.07 L 707.4 142.07 L 707.4 142.07 L 707.4 142.07 L 707.4 142.07 L 707.4 142.07 L 707.4 142.07 L 707.4 142.07 Z  M 801.34 131.69 L 801.34 171.95 L 777.79 171.95 L 777.79 135.23 C 777.79 129.24 776.34 124.7 773.42 121.62 C 770.51 118.54 766.27 117 760.7 117 C 756.82 117 753.46 117.82 750.63 119.47 C 747.81 121.11 745.61 123.44 744.05 126.43 C 742.49 129.43 741.71 132.99 741.71 137.13 L 741.71 171.95 L 718.28 171.95 L 718.28 74.46 L 741.71 74.46 L 741.71 112.08 C 744.71 107.7 748.37 104.29 752.66 101.87 C 757.51 99.13 762.89 97.75 768.8 97.75 C 775.64 97.75 781.48 99.15 786.34 101.93 C 791.19 104.72 794.91 108.62 797.48 113.64 C 800.06 118.67 801.34 124.68 801.34 131.69 L 801.34 131.69 L 801.34 131.69 L 801.34 131.69 L 801.34 131.69 L 801.34 131.69 L 801.34 131.69 L 801.34 131.69 L 801.34 131.69 L 801.34 131.69 L 801.34 131.69 Z  M 900.99 171.95 L 873.97 128.82 L 899.09 99.78 L 873.89 99.78 L 838.95 142.74 L 838.95 74.46 L 815.52 74.46 L 815.52 171.95 L 836.67 171.95 L 859 146.13 L 874.27 171.95 L 900.99 171.95 L 900.99 171.95 L 900.99 171.95 L 900.99 171.95 L 900.99 171.95 L 900.99 171.95 L 900.99 171.95 L 900.99 171.95 L 900.99 171.95 L 900.99 171.95 Z  M 919.6 92.18 C 915.46 92.18 912.09 91.1 909.47 88.95 C 906.85 86.8 905.55 83.95 905.55 80.4 C 905.55 76.85 906.86 73.9 909.47 71.79 C 912.09 69.68 915.46 68.62 919.6 68.62 C 923.74 68.62 927.2 69.68 929.73 71.79 C 932.26 73.9 933.53 76.77 933.53 80.4 C 933.53 84.03 932.26 86.79 929.73 88.95 C 927.2 91.1 923.82 92.18 919.6 92.18 L 919.6 92.18 L 919.6 92.18 L 919.6 92.18 L 919.6 92.18 L 919.6 92.18 L 919.6 92.18 L 919.6 92.18 L 919.6 92.18 Z  M 907.82 98.76 L 919.47 101.17 L 931.24 98.76 L 931.24 171.94 L 907.82 171.94 L 907.82 98.76 L 907.82 98.76 L 907.82 98.76 L 907.82 98.76 L 907.82 98.76 L 907.82 98.76 L 907.82 98.76 L 907.82 98.76 L 907.82 98.76 L 907.82 98.76 Z  M 1030.77 142.07 C 1030.09 148.32 1027.75 153.84 1023.74 158.66 C 1019.73 163.47 1014.58 167.23 1008.29 169.93 C 1002 172.63 994.93 173.98 987.08 173.98 C 978.39 173.98 970.7 172.38 964.04 169.17 C 957.37 165.96 952.18 161.49 948.47 155.75 C 944.75 150.01 942.9 143.39 942.9 135.87 C 942.9 128.35 944.76 121.75 948.47 116.05 C 952.18 110.35 957.37 105.88 964.04 102.63 C 970.71 99.38 978.39 97.76 987.08 97.76 C 994.93 97.76 1002 99.11 1008.29 101.81 C 1014.58 104.51 1019.73 108.25 1023.74 113.02 C 1027.75 117.79 1030.09 123.38 1030.77 129.8 L 1007.35 129.8 C 1006.42 125.16 1004.12 121.59 1000.45 119.1 C 996.78 116.61 992.33 115.36 987.09 115.36 C 982.95 115.36 979.34 116.16 976.26 117.77 C 973.18 119.37 970.79 121.72 969.11 124.8 C 967.42 127.88 966.58 131.57 966.58 135.88 C 966.58 140.19 967.42 143.86 969.11 146.9 C 970.8 149.94 973.18 152.26 976.26 153.86 C 979.34 155.46 982.95 156.27 987.09 156.27 C 992.41 156.27 996.88 154.98 1000.51 152.41 C 1004.14 149.84 1006.42 146.4 1007.35 142.09 L 1030.77 142.09 L 1030.77 142.07 L 1030.77 142.07 L 1030.77 142.07 L 1030.77 142.07 L 1030.77 142.07 L 1030.77 142.07 L 1030.77 142.07 Z  M 1127.12 171.95 L 1100.11 128.82 L 1125.22 99.78 L 1100.03 99.78 L 1065.08 142.74 L 1065.08 74.46 L 1041.66 74.46 L 1041.66 171.95 L 1062.8 171.95 L 1085.13 146.13 L 1100.4 171.95 L 1127.12 171.95 L 1127.12 171.95 L 1127.12 171.95 L 1127.12 171.95 L 1127.12 171.95 L 1127.12 171.95 L 1127.12 171.95 Z  M 1302.99 131.69 L 1302.99 171.95 L 1279.44 171.95 L 1279.44 135.23 C 1279.44 129.24 1278.13 124.7 1275.51 121.62 C 1272.89 118.54 1269.05 117 1263.99 117 C 1260.45 117 1257.38 117.82 1254.81 119.47 C 1252.24 121.11 1250.25 123.44 1248.86 126.43 C 1247.47 129.43 1246.77 132.99 1246.77 137.13 L 1246.77 171.95 L 1223.22 171.95 L 1223.22 135.23 C 1223.22 129.24 1221.91 124.7 1219.29 121.62 C 1216.68 118.54 1212.84 117 1207.77 117 C 1204.23 117 1201.17 117.82 1198.59 119.47 C 1196.02 121.11 1194.04 123.44 1192.64 126.43 C 1191.25 129.43 1190.55 132.99 1190.55 137.13 L 1190.55 171.95 L 1167 171.95 L 1167 124.34 L 1162.45 99.78 L 1185.87 99.78 L 1188.41 115.07 C 1188.63 114.65 1188.86 114.23 1189.1 113.83 C 1192.18 108.6 1196.02 104.61 1200.62 101.87 C 1205.22 99.13 1210.31 97.75 1215.88 97.75 C 1222.46 97.75 1228.05 99.15 1232.65 101.93 C 1237.25 104.72 1240.76 108.62 1243.16 113.64 C 1243.51 114.37 1243.83 115.13 1244.13 115.9 C 1244.49 115.19 1244.86 114.5 1245.25 113.83 C 1248.29 108.6 1252.13 104.61 1256.77 101.87 C 1261.41 99.13 1266.48 97.75 1271.97 97.75 C 1278.55 97.75 1284.16 99.15 1288.81 101.93 C 1293.45 104.72 1296.97 108.62 1299.38 113.64 C 1301.79 118.67 1302.99 124.68 1302.99 131.69 L 1302.99 131.69 L 1302.99 131.69 L 1302.99 131.69 L 1302.99 131.69 L 1302.99 131.69 Z  M 1339.77 123.84 C 1341.41 120.97 1343.71 118.73 1346.67 117.12 C 1349.62 115.52 1353.13 114.72 1357.18 114.72 C 1360.89 114.72 1364.1 115.46 1366.8 116.93 C 1369.5 118.41 1371.67 120.52 1373.32 123.27 C 1374.17 124.69 1374.84 126.27 1375.31 128.01 L 1338.05 128.01 C 1338.45 126.52 1339.03 125.14 1339.77 123.84 L 1339.77 123.84 L 1339.77 123.84 L 1339.77 123.84 L 1339.77 123.84 L 1339.77 123.84 Z  M 1459.29 153.27 C 1455.96 155 1452.43 155.87 1448.72 155.87 C 1445.01 155.87 1441.73 155 1438.91 153.27 C 1436.08 151.54 1433.86 149.18 1432.26 146.18 C 1430.66 143.19 1429.85 139.75 1429.85 135.86 C 1429.85 131.97 1430.66 128.54 1432.26 125.54 C 1433.86 122.55 1436.08 120.19 1438.91 118.45 C 1441.73 116.72 1445 115.86 1448.72 115.86 C 1452.44 115.86 1455.96 116.72 1459.29 118.45 C 1462.63 120.19 1465.56 122.55 1468.09 125.54 C 1470.62 128.54 1472.52 131.98 1473.79 135.86 C 1472.52 139.75 1470.62 143.19 1468.09 146.18 C 1465.56 149.18 1462.63 151.54 1459.29 153.27 L 1459.29 153.27 L 1459.29 153.27 L 1459.29 153.27 Z  M 1524.69 92.18 C 1520.55 92.18 1517.18 91.1 1514.56 88.95 C 1511.94 86.8 1510.63 83.95 1510.63 80.4 C 1510.63 76.85 1511.94 73.9 1514.56 71.79 C 1517.18 69.68 1520.55 68.62 1524.69 68.62 C 1528.83 68.62 1532.29 69.68 1534.82 71.79 C 1537.35 73.9 1538.62 76.77 1538.62 80.4 C 1538.62 84.03 1537.35 86.79 1534.82 88.95 C 1532.29 91.1 1528.91 92.18 1524.69 92.18 L 1524.69 92.18 L 1524.69 92.18 Z  M 1512.91 98.76 L 1524.56 101.17 L 1536.34 98.76 L 1536.34 171.94 L 1512.92 171.94 L 1512.92 98.76 L 1512.91 98.76 L 1512.91 98.76 L 1512.91 98.76 Z  M 1364.9 156.5 C 1358.99 156.5 1353.99 155.62 1349.9 153.84 C 1345.8 152.07 1342.68 149.5 1340.53 146.12 C 1339.88 145.09 1339.32 143.99 1338.87 142.83 L 1397.57 142.83 C 1397.57 133.71 1395.92 125.78 1392.63 119.02 C 1389.34 112.27 1384.65 107.04 1378.58 103.32 C 1372.5 99.61 1365.24 97.75 1356.8 97.75 C 1348.36 97.75 1341.12 99.36 1334.58 102.56 C 1328.03 105.77 1322.91 110.2 1319.19 115.86 C 1315.48 121.51 1313.62 128.1 1313.62 135.61 C 1313.62 143.12 1315.56 150 1319.45 155.74 C 1323.33 161.48 1328.67 165.96 1335.46 169.16 C 1342.26 172.37 1349.96 173.97 1358.57 173.97 C 1365.83 173.97 1372.6 173.04 1378.89 171.19 C 1385.18 169.33 1390.77 166.72 1395.67 163.34 L 1395.67 148.02 C 1391.36 150.72 1386.51 152.81 1381.11 154.29 C 1375.71 155.76 1370.3 156.5 1364.9 156.5 L 1364.9 156.5 L 1364.9 156.5 L 1364.9 156.5 L 1364.9 156.5 L 1364.9 156.5 Z  M 1502.53 74.46 L 1478.09 74.46 L 1473.39 115.42 C 1469.84 109.92 1465.42 105.61 1460.12 102.5 C 1454.71 99.34 1448.64 97.75 1441.88 97.75 C 1434.79 97.75 1428.57 99.36 1423.21 102.56 C 1417.85 105.77 1413.65 110.22 1410.61 115.92 C 1407.57 121.62 1406.05 128.27 1406.05 135.86 C 1406.05 143.45 1407.57 150.11 1410.61 155.81 C 1413.65 161.5 1417.85 165.96 1423.21 169.16 C 1428.57 172.37 1434.79 173.97 1441.88 173.97 C 1448.97 173.97 1454.71 172.39 1460.12 169.23 C 1465.48 166.08 1469.92 161.7 1473.46 156.06 L 1475.31 171.95 L 1499.62 171.95 L 1495.31 134.09 L 1502.53 74.46 L 1502.53 74.46 L 1502.53 74.46 L 1502.53 74.46 L 1502.53 74.46 Z  M 1601.48 153.27 C 1598.14 155 1594.62 155.87 1590.91 155.87 C 1587.2 155.87 1583.92 155 1581.09 153.27 C 1578.27 151.54 1576.05 149.18 1574.45 146.18 C 1572.84 143.19 1572.04 139.75 1572.04 135.86 C 1572.04 131.97 1572.84 128.54 1574.45 125.54 C 1576.05 122.55 1578.27 120.19 1581.09 118.45 C 1583.92 116.72 1587.19 115.86 1590.91 115.86 C 1594.63 115.86 1598.14 116.72 1601.48 118.45 C 1604.81 120.19 1607.75 122.55 1610.28 125.54 C 1612.81 128.54 1614.71 131.98 1615.98 135.86 C 1614.71 139.75 1612.81 143.19 1610.28 146.18 C 1607.75 149.18 1604.81 151.54 1601.48 153.27 L 1601.48 153.27 Z  M 1641.55 99.78 L 1617.12 99.78 L 1615.29 114.96 C 1611.79 109.68 1607.45 105.52 1602.3 102.5 C 1596.9 99.34 1590.82 97.75 1584.07 97.75 C 1576.98 97.75 1570.75 99.36 1565.39 102.56 C 1560.03 105.77 1555.83 110.22 1552.8 115.92 C 1549.76 121.62 1548.24 128.27 1548.24 135.86 C 1548.24 143.45 1549.76 150.11 1552.8 155.81 C 1555.83 161.5 1560.03 165.96 1565.39 169.16 C 1570.75 172.37 1576.98 173.97 1584.07 173.97 C 1591.16 173.97 1596.9 172.39 1602.3 169.23 C 1607.47 166.19 1611.8 162 1615.27 156.64 L 1617.12 171.95 L 1641.55 171.95 L 1637.12 135.86 L 1641.55 99.78 L 1641.55 99.78 L 1641.55 99.78 Z "
    fill-rule="evenodd" fill="#fff" />
  <path
    d=" M 64.25 171.88 L 64.25 78.13 L 85.37 78.13 L 85.37 142.647 L 137.37 78.13 L 159.99 78.13 L 83.37 171.88 L 64.25 171.88 L 64.25 171.88 Z  M 0 125 C 0 56.011 56.011 0 125 0 C 193.989 0 250 56.011 250 125 C 250 193.989 193.989 250 125 250 C 56.011 250 0 193.989 0 125 L 0 125 Z  M 192 171.88 L 158.23 117.76 L 190.62 78.12 L 168 78.12 L 91.28 171.88 L 114 171.88 L 144.71 134.3 L 167.75 171.88 L 192 171.88 L 192 171.88 Z "
    fill-rule="evenodd" fill="#fff" />
</svg>
